styles/emoji-one/1f1f9-1f1ec.svg

<svg xmlns="http://www.w3.org/2000/svg" viewBox="0 0 64 64" enable-background="new 0 0 64 64"><path fill="#ffce31" d="m8 50h48c2.621-3.488 4.498-7.566 5.398-12h-58.796c.9 4.434 2.777 8.512 5.398 12"/><path fill="#83bf4f" d="m56 50h-48c5.473 7.286 14.186 12 24 12s18.527-4.714 24-12"/><path fill="#ed4c5c" d="M2,32c0,2.055,0.207,4.061,0.602,6H32V2C15.432,2,2,15.432,2,32z"/><path fill="#83bf4f" d="M32,2v12h24C50.527,6.714,41.814,2,32,2z"/><path fill="#ffce31" d="m56 14h-24v12h29.398c-.9-4.434-2.777-8.512-5.398-12"/><path fill="#83bf4f" d="m61.4 26h-29.398v12h29.398c.395-1.939.602-3.945.602-6s-.207-4.061-.602-6"/><path fill="#fff" d="M18 27.306 24.799 32 22.23 24.367 29 19.638 20.615 19.615 18 12 15.383 19.615 7 19.638 13.768 24.367 11.201 32z"/></svg>

<svg xmlns="http://www.w3.org/2000/svg" viewBox="0 0 64 64"><path fill="#ffce31" d="M8 50h48a29.846 29.846 0 0 0 5.398-12H2.602A29.846 29.846 0 0 0 8 50"/><path fill="#83bf4f" d="M56 50H8c5.473 7.286 14.186 12 24 12s18.527-4.714 24-12"/><path fill="#ed4c5c" d="M2 32c0 2.055.207 4.061.602 6H32V2C15.432 2 2 15.432 2 32z"/><path fill="#83bf4f" d="M32 2v12h24C50.527 6.714 41.814 2 32 2z"/><path fill="#ffce31" d="M56 14H32v12h29.398A29.846 29.846 0 0 0 56 14"/><path fill="#83bf4f" d="M61.4 26H32.002v12H61.4c.395-1.939.602-3.945.602-6s-.207-4.061-.602-6"/><path fill="#fff" d="M18 27.306L24.799 32l-2.569-7.633L29 19.638l-8.385-.023L18 12l-2.617 7.615L7 19.638l6.768 4.729L11.201 32z"/></svg>
